X: 1
T: The Coleraine
R: jig
M: 6/8
L: 1/8
K: Amin
|:"Am"EAA ABc|"G"Bee e2d| "C"cBA ABc| "E"B^GE E2 D|
"Am"EAA ABc|"G"Bee e2d|"Am"cBA "E"B^GE|"Am"A2A A3:|
"C"c3 cdc|"G"Bgg g2^g|"Am"aed cBA|"E"^GBA E^F^G|
"Am"A^GA "Bm"BAB|"C"cde "Dm"fed|"Am"cBA "E"B^GE|"Am"A2A A3:|


Tune 17	Setting 12387

